X: 2
T: the 72nd's Farewell to Aberdeen
T: a Boy's Lament for His Dragon
M: C|
S: Roaring Jelly collection
R: reel
K: D
B2 |\
"D"A2d2 d2ef | "D"gfed f4 | "G"g2B2 "Em"B2cd | "A"efed c2A2 |
"D"A2d2 d2ef | "D"gfed f4 | "Em"g2B2 "A"cdec | "D"d4- d2 :|
|: fg |\
"D"a2A2 A2=c2 | "G"B2G2 "A"A4 | "D"A2d2 "Bm"dcde | "Em"f2e2 "A"e2fg |
"D"a2A2 A2=c2 | "G"B2G2 "A"A4 | "D"A2d2 "A"fedc | "D"d4- d2 :|

%%sep 1 1 500

